X:35
T:Roll out the Barrels
R:Reel
H:From a recording of Paddy Canney and P.J. Hayes
M:4/4
L:1/8
K:D
E ~E3 G~E3 | B2AF DEFE | E~E3 G~E3 | (3BcB) Ad
BAFD |
E ~E3 G~E3 | F~E3 DEFE | C~E3 BEDF | (3BcB) A
d BAFD |
e2 {g}fe Befe | d3f a2 fd | e2 {g}fe Befe | dBAc BE{F}E D |
e2 {g}fe Befe | dcdf a2 fd | (efg)e edec | {e}dBAc BE{F}E2 ||
